X:1523
T:Black Pat's
R:reel
C:Tommy Peoples
D:Lúnasa: Otherworld
Z:Devin McCabe
M:C|
L:1/8
K:EMin
~G3B e2dB|AdBA G~E3|~G3B edBA|(3Bcd gb aega|
!bg g/2g/2g aged|B2dB AGED|~G3B eddB|AdBA ~G3F:|
!~G3A GEDE|~G3A Be e/2e/2e|d2BG dGBG|AGBA G~E3|
!~G3A GEDE|~G3G dega|bg g/2g/2g ageg|dgba ~g3e|
!d3B BAGE|DEGA Be e/2e/2e|d2BG dGBG|AGBA G~E3|
!~G3A GEDE|~G3B dega|bg g/2g/2g ageg|dgba ~g3a|
!:~b3g egdg|gedB ~G3z|b2gd b2gd|e~a3 a2ga|
!~b3g egdg|gedA (3Bcd ga|bgag eddB|AGGE ~G3z:|


